X:1
T:The Jolly Broom-man: Or, the unhappy Boy turn'd Thrifty
B:D'Urfey, Wit and Mirth, Vol. 6 (Folklore Library Publishers, 1959, pp. 100-102)
M:3/4
L:1/4
K:D
d|dfg|a3/2b/a|afd|dde|faf|faf|e2e|def|fed|
gab|b2b|afd|def|g2e|g2b|afd|faA|d2||
